src/modernizr/modernizr-black.svg

<svg xmlns="http://www.w3.org/2000/svg" width="128" height="128"><path fill-rule="evenodd" clip-rule="evenodd" d="M24 83.2v-12.8h12.8v-12.8h12.8v-12.8h12.8v38.4h-38.4zm41.6 0h38.4c0-21.207-17.192-38.4-38.4-38.4v38.4z"/></svg>

<?xml version="1.0" encoding="UTF-8" standalone="no"?>
<!-- Created with Inkscape (http://www.inkscape.org/) -->

<svg
   xmlns:dc="http://purl.org/dc/elements/1.1/"
   xmlns:cc="http://creativecommons.org/ns#"
   xmlns:rdf="http://www.w3.org/1999/02/22-rdf-syntax-ns#"
   xmlns:svg="http://www.w3.org/2000/svg"
   xmlns="http://www.w3.org/2000/svg"
   xmlns:inkscape="http://www.inkscape.org/namespaces/inkscape"
   version="1.1"
   width="128"
   height="128"
   id="svg2">
  <metadata
     id="metadata10">
    <rdf:RDF>
      <cc:Work
         rdf:about="">
        <dc:format>image/svg+xml</dc:format>
        <dc:type
           rdf:resource="http://purl.org/dc/dcmitype/StillImage" />
      </cc:Work>
    </rdf:RDF>
  </metadata>
  <defs
     id="defs8" />
  <path
     d="M 24,83.2 V 70.4 H 36.8 V 57.6 H 49.6 V 44.8 H 62.4 V 83.2 H 24 z m 41.6,0 H 104 C 104,61.993 86.808,44.8 65.6,44.8 v 38.4 z"
     inkscape:connector-curvature="0"
     id="path4"
     style="fill-rule:evenodd" />
</svg>
